media/img/products/vpn/resource-center/icons/windows_icon.svg

<svg width="53" height="52" viewBox="0 0 53 52" fill="none" xmlns="http://www.w3.org/2000/svg">
<path d="M0.478516 7.33569L21.5871 4.46092L21.5963 24.8219L0.497798 24.942L0.478516 7.33569ZM21.5771 27.1679L21.5934 47.5466L0.4949 44.6458L0.493717 27.0312L21.5771 27.1679ZM24.1359 4.08485L52.1242 0V24.5629L24.1359 24.7851V4.08485ZM52.1307 27.3595L52.1241 51.8118L24.1359 47.8616L24.0966 27.3137L52.1307 27.3595Z" fill="black"/>
</svg>

<svg width="53" height="52" fill="none" xmlns="http://www.w3.org/2000/svg"><path d="M.479 7.336 21.587 4.46l.01 20.36-21.1.121L.48 7.336Zm21.098 19.832.016 20.379L.495 44.646.494 27.03l21.083.137Zm2.559-23.083L52.124 0v24.563l-27.988.222v-20.7ZM52.13 27.359l-.007 24.453-27.988-3.95-.04-20.548 28.035.046Z" fill="#000"/></svg>
